source/img/sprite/mountains.svg

<svg width="25" height="25" viewBox="0 0 25 25" fill="none" xmlns="http://www.w3.org/2000/svg">
<g clip-path="url(#clip0_809_714)">
<rect width="25" height="25" fill="white"/>
<path d="M23.4153 24.1879L19.3747 14.7901L15.5583 5.9074C15.4551 5.665 15.1749 5.55224 14.9325 5.65546C14.8192 5.70376 14.7289 5.79404 14.6806 5.9074L11.2744 13.8121L9.93871 16.9177L7.00963 10.1579C6.90634 9.91551 6.62614 9.80274 6.3838 9.90596C6.27044 9.95427 6.18016 10.0445 6.13186 10.1579L3.37928 16.517L0.0399368 24.1831C-0.0654315 24.4246 0.0448861 24.7058 0.286333 24.8112C0.347037 24.8377 0.412572 24.8513 0.478822 24.851H22.9765C23.2399 24.8508 23.4533 24.6371 23.4531 24.3736C23.4531 24.3098 23.4402 24.2467 23.4153 24.1879ZM15.1147 7.29561L18.2107 14.4943H17.1231L15.1576 12.3237C14.9804 12.1287 14.6787 12.1143 14.4837 12.2916C14.4531 12.3194 14.4263 12.351 14.4039 12.3857L13.6692 13.5211H12.4384L15.1147 7.29561ZM6.57074 11.5318L9.018 17.1896H7.68226C7.52007 17.1899 7.36914 17.2726 7.28154 17.4091L6.80449 18.1676L5.57371 16.4311C5.48474 16.3028 5.33864 16.2262 5.18253 16.226H4.54805L6.57074 11.5318ZM1.22779 23.8969L4.13302 17.1801H4.93446L6.42285 19.3029C6.51182 19.4312 6.65792 19.5078 6.81403 19.5081C6.97283 19.5046 7.11947 19.4223 7.20522 19.2886L7.93987 18.1532H9.42826L11.9137 23.8778L1.22779 23.8969ZM12.9584 23.8969L10.4587 18.1246L12.0282 14.4752H13.9364C14.0986 14.4749 14.2495 14.3923 14.3371 14.2558L14.8666 13.44L16.5554 15.3053C16.6455 15.4052 16.7738 15.4624 16.9084 15.4627H18.6162L22.2466 23.9112L12.9584 23.8969Z" fill="#2D383F"/>
<path d="M7.61145 2.08189C7.16142 0.922602 5.85675 0.347698 4.69752 0.797794C3.83436 1.13286 3.26434 1.96221 3.26076 2.8881C3.25605 2.97075 3.25605 3.05352 3.26076 3.13617C2.1329 3.65997 1.64327 4.99893 2.16707 6.12679C2.52981 6.90778 3.3062 7.41351 4.16716 7.42961L4.19101 7.44869H7.53035C9.01237 7.47112 10.2319 6.28786 10.2543 4.80584C10.2767 3.32383 9.09347 2.10431 7.61145 2.08189ZM7.55898 6.50891H4.21963C3.50561 6.58267 2.86702 6.0637 2.79326 5.34968C2.71949 4.63565 3.23846 3.99706 3.95249 3.9233C4.21075 3.87124 4.37795 3.61972 4.3259 3.3614C4.3219 3.34166 4.31671 3.32216 4.31027 3.30314C4.2637 3.16968 4.23955 3.02943 4.23872 2.8881C4.23466 2.17146 4.81225 1.58725 5.52889 1.58314C6.16283 1.5795 6.70655 2.03448 6.81478 2.65912C6.85861 2.90993 7.09171 3.08208 7.34431 3.0503C7.4158 3.04559 7.48748 3.04559 7.55898 3.0503C8.51403 3.0503 9.28828 3.82455 9.28828 4.7796C9.28828 5.73466 8.51403 6.50891 7.55898 6.50891Z" fill="#2D383F"/>
<path d="M23.6966 2.63949C23.7013 2.55684 23.7013 2.47407 23.6966 2.39142C23.6917 1.14787 22.6797 0.143684 21.4362 0.148454C20.517 0.152032 19.6936 0.714116 19.3539 1.56678C17.8794 1.59767 16.7046 2.81343 16.7269 4.29008C16.7493 5.77209 17.9688 6.95535 19.4508 6.93293H22.7902C24.0335 6.90967 25.0226 5.88294 24.9994 4.63958C24.9833 3.77862 24.4776 3.00222 23.6966 2.63949ZM24.0559 4.94709C23.9296 5.53959 23.4102 5.96583 22.8045 5.97406H19.4651C18.5101 5.97406 17.7358 5.19981 17.7358 4.24476C17.7358 3.2897 18.5101 2.51545 19.4651 2.51545C19.5366 2.51074 19.6083 2.51074 19.6798 2.51545C19.9212 2.5405 20.1429 2.38039 20.195 2.14336C20.3146 1.43679 20.9843 0.960929 21.6909 1.08049C22.3975 1.20005 22.8734 1.86977 22.7538 2.5764C22.7416 2.64813 22.7235 2.71874 22.6995 2.78743C22.6153 3.03705 22.7494 3.30771 22.9991 3.39197C23.0181 3.39841 23.0376 3.40366 23.0573 3.4076C23.7582 3.55691 24.2053 4.24619 24.0559 4.94709Z" fill="#2D383F"/>
</g>
<defs>
<clipPath id="clip0_809_714">
<rect width="25" height="25" fill="white"/>
</clipPath>
</defs>
</svg>

<svg viewBox="0 0 25 25" fill="none" xmlns="http://www.w3.org/2000/svg"><g clip-path="url(#a)"><path fill="#fff" d="M0 0h25v25h-25z"/><path d="m23.42 24.19-4.05-9.4-3.81-8.88a.48.48 0 0 0-.88 0l-3.4 7.9-1.34 3.1-2.93-6.75a.48.48 0 0 0-.88 0l-2.75 6.36-3.34 7.66a.48.48 0 0 0 .44.67h22.5a.48.48 0 0 0 .44-.66Zm-8.3-16.9 3.1 7.2h-1.1l-1.96-2.17a.48.48 0 0 0-.76.07l-.73 1.13h-1.23l2.67-6.22Zm-8.55 4.24 2.45 5.66h-1.34a.48.48 0 0 0-.4.22l-.48.76-1.23-1.74a.48.48 0 0 0-.39-.2h-.63l2.02-4.7Zm-5.34 12.37 2.9-6.72h.8l1.5 2.12c.08.13.23.2.38.2a.5.5 0 0 0 .4-.21l.73-1.14h1.49l2.48 5.73-10.68.02Zm11.73 0-2.5-5.78 1.57-3.64h1.9c.17 0 .32-.09.4-.22l.54-.82 1.69 1.87c.09.1.21.15.35.15h1.7l3.64 8.45-9.3-.01Zm-5.35-21.82a2.25 2.25 0 0 0-4.35.8v.26a2.25 2.25 0 0 0 .9 4.29l.03.02h3.34a2.68 2.68 0 1 0 .08-5.37Zm-.05 4.43h-3.34a1.3 1.3 0 1 1-.27-2.59.48.48 0 0 0 .36-.62 1.3 1.3 0 1 1 2.5-.64c.05.25.28.42.53.39h.22a1.73 1.73 0 0 1 0 3.46Zm16.14-3.87v-.25a2.25 2.25 0 0 0-4.35-.82 2.68 2.68 0 0 0 .1 5.36h3.34a2.25 2.25 0 0 0 .9-4.3Zm.36 2.3a1.3 1.3 0 0 1-1.26 1.03h-3.33a1.73 1.73 0 0 1 0-3.45h.21a.5.5 0 0 0 .52-.38 1.3 1.3 0 1 1 2.5.65.48.48 0 0 0 .36.62c.7.15 1.15.84 1 1.54Z" fill="#2D383F"/></g><defs><clipPath id="a"><path fill="#fff" d="M0 0h25v25h-25z"/></clipPath></defs></svg>
